!!!COM: Gomółka, Mikołaj
!!!CDT: ~1535-after 1591
!!!OTL: Czasu gniewu
!!!OTL@LAT:
!!!AGn: Motet; Psalm
!!!SCn: Gom2038
!!!voices: 4
!!!CNT: Polish
!!!OCY: Poland
!!!LYR: Jan Kochanowski (1530-1584/08/22)
!!!GTL: Melodiae na Psałterz Polski
!!!EFL: 38/150
!!!PPR: Łazarz Andrysowicz
!!!PPP: Kraków
!!!PDT: 1580
!!!YEC: 2015 Marcin Konik
!!!ENC: Marcin Konik
!!!END: 2015/05/19
!!!EED: Marcin Konik
!!!EEV: 2015/05/19
!!!ONB: Translated from MusicXML and edited on 2015/03/06 by Marcin Konik
!!!CharacterEncoding: utf-8
!!muse2ps: i2I150v85,85,85,150Q16
**kern	**kern	**kern	**kern
*staff4	*staff3	*staff2	*staff1
*Ivox	*Ivox	*Ivox	*Ivox
*I"Bassus	*I"Tenor	*I"Altus	*I"Cantus
*I'B	*I'T	*I'A	*I'C
*clefF4	*clefC4	*clefC3	*clefC1
*k[b-]	*k[b-]	*k[b-]	*k[b-]
*M2/1	*M2/1	*M2/1	*M2/1
*met(C|)	*met(C|)	*met(C|)	*met(C|)
=1-	=1-	=1-	=1-
1D	1A	1d	1d
2BB-	2B-	2.d	2f
2GG	2B-	.	2g
.	.	4e	.
=2	=2	=2	=2
2D	2A	2.f	2a
2D	2d	.	2a
.	.	4g	.
2F	2c	2a	2a
2G	2B-	4g	2b-
.	.	4f	.
=3	=3	=3	=3
2A	2c	4e	2a
.	.	8d	.
.	.	8e	.
2F	4A	[2f	4cc
.	4B-	.	4b-
2F	4c	4f]	4a
.	4B-	4e	4g
2G	4A	4d	[2g
.	4G	4c	.
=4	=4	=4	=4
1D	1A	2.d	2g]
.	.	.	2f#
.	.	4c	.
1GG	1G	1B-	1g
=5	=5	=5	=5
1D	1A	1d	1d
2BB-	2B-	2.d	2f
2GG	2B-	.	2g
.	.	4e	.
=6	=6	=6	=6
2D	2A	2.f	2a
2D	2d	.	2a
.	.	4g	.
2F	2c	2a	2a
2G	2B-	4g	2b-
.	.	4f	.
=7	=7	=7	=7
2A	2c	4e	2a
.	.	8d	.
.	.	8e	.
2F	4A	[2f	4cc
.	4B-	.	4b-
2F	4c	4f]	4a
.	4B-	4e	4g
2G	4A	4d	[2g
.	4G	4c	.
=8	=8	=8	=8
1D	1A	2.d	2g]
.	.	.	2f#
.	.	4c	.
1GG	1G	1B-	1g
=9	=9	=9	=9
*M2/2	*M2/2	*M2/2	*M2/2
2r	2r	2r	2r
2G	2d	4G	2b-
.	.	4A	.
=10	=10	=10	=10
*M4/2	*M4/2	*M4/2	*M4/2
2G	2d	4B-	2b-
.	.	4c	.
2F	4A	4d	2a
.	4B-	8c	.
.	.	8d	.
2C	2c	4e	4g
.	.	4d	4f
2D	2A	4d	4f
.	.	8c	8e
.	.	8B	8d
=11	=11	=11	=11
1AA	2.A	4c#	1e
.	.	2d	.
.	4G	4c#	.
2BB-	2F	2d	2d
2FF	2A	2c	2f
=12	=12	=12	=12
2GG	2.G	2B-	4e
.	.	.	4d
2GG	.	2B-	4c#
.	4F	.	4B
2AA	4E	2A	4c#
.	4D	.	2d
2AA	2E	2A	.
.	.	.	4c#
=13	=13	=13	=13
2D	2D	2A	2d
4BB-	2d	2f	2b-
4C	.	.	.
4D	2d	2f	2b-
4E	.	.	.
2F	2c	2f	2a
=14	=14	=14	=14
2G	1B-	1d	1g
2GG	.	.	.
2D	2A	2d	2f
2D	2d	2f	4a
.	.	.	4b-
=15	=15	=15	=15
2E-	2B-	2e-	4a
.	.	.	4g
2C	2c	2e-	1g
1D	1A	2.d	.
.	.	.	2f#
.	.	4c	.
=16	=16	=16	=16
0GG	0G	0B	0g
==	==	==	==
*-	*-	*-	*-
